%
(Header)
(Generated by gcodetools from Inkscape.)
(Using default header. To add your own header create file "header" in the output dir.)
M3
(Header end.)
G21 (All units in mm)

(Start cutting path id: path5889)
(Change tool to Default tool)

G00 Z 5.0000
G00 X 246.0690 Y 1080.2790

G01 Z -1.0000 F 100.0000(Penetrate)
G01 X 279.2579 Y 4764.2510 Z -1.0000 F 400.0000
G01 X 1854.2238 Y 4761.2336 Z -1.0000
G01 X 1769.7429 Y 1056.1417 Z -1.0000
G01 X 246.0690 Y 1080.2790 Z -1.0000
G00 Z 5.0000

(End cutting path id: path5889)


(Start cutting path id: path4350)
(Change tool to Default tool)

G00 Z 5.0000
G00 X 679.8369 Y 2226.5368

G01 Z -1.0000 F 100.0000(Penetrate)
G01 X 688.3709 Y 1910.7839 Z -1.0000 F 400.0000
G00 Z 5.0000

(End cutting path id: path4350)


(Start cutting path id: path4348)
(Change tool to Default tool)

G00 Z 5.0000
G00 X 1362.5460 Y 2226.5368

G01 Z -1.0000 F 100.0000(Penetrate)
G01 X 679.8369 Y 2226.5368 Z -1.0000 F 400.0000
G01 X 688.3709 Y 2584.9591 Z -1.0000
G00 Z 5.0000

(End cutting path id: path4348)


(Start cutting path id: path4356)
(Change tool to Default tool)

G00 Z 5.0000
G00 X 707.6969 Y 2821.1896

G01 Z -1.0000 F 100.0000(Penetrate)
G01 X 719.7656 Y 3177.2164 Z -1.0000 F 400.0000
G00 Z 5.0000

(End cutting path id: path4356)


(Start cutting path id: path4352)
(Change tool to Default tool)

G00 Z 5.0000
G00 X 707.6969 Y 2821.1896

G01 Z -1.0000 F 100.0000(Penetrate)
G01 X 1371.4755 Y 2821.1896 Z -1.0000 F 400.0000
G01 X 1374.4928 Y 3168.1648 Z -1.0000
G00 Z 5.0000

(End cutting path id: path4352)


(Start cutting path id: path4354)
(Change tool to Default tool)

G00 Z 5.0000
G00 X 1054.6722 Y 2821.1896

G01 Z -1.0000 F 100.0000(Penetrate)
G01 X 1060.7065 Y 3168.1648 Z -1.0000 F 400.0000
G00 Z 5.0000

(End cutting path id: path4354)


(Start cutting path id: path4358)
(Change tool to Default tool)

G00 Z 5.0000
G00 X 713.7312 Y 3611.6897

G01 Z -1.0000 F 100.0000(Penetrate)
G01 X 707.6969 Y 3322.0408 Z -1.0000 F 400.0000
G01 X 1051.6550 Y 3328.0751 Z -1.0000
G01 X 1066.7409 Y 3653.9302 Z -1.0000
G01 X 1377.5099 Y 3650.9130 Z -1.0000
G01 X 1368.4584 Y 3316.0065 Z -1.0000
G00 Z 5.0000

(End cutting path id: path4358)


(Start cutting path id: path4360)
(Change tool to Default tool)

G00 Z 5.0000
G00 X 710.7140 Y 3771.6001

G01 Z -1.0000 F 100.0000(Penetrate)
G01 X 716.7485 Y 4022.0256 Z -1.0000 F 400.0000
G01 X 1365.4412 Y 4012.9740 Z -1.0000
G00 Z 5.0000

(End cutting path id: path4360)


(Start cutting path id: path4362)
(Change tool to Default tool)

G00 Z 5.0000
G00 X 716.7485 Y 4022.0256

G01 Z -1.0000 F 100.0000(Penetrate)
G01 X 716.7485 Y 4260.3826 Z -1.0000 F 400.0000
G00 Z 5.0000

(End cutting path id: path4362)



(Footer)
M5
G00 X0.0000 Y0.0000
M2
(Using default footer. To add your own footer create file "footer" in the output dir.)
(end)
%